app/images/calendar.svg

<svg width="19" height="19" viewBox="0 0 19 19" fill="none" xmlns="http://www.w3.org/2000/svg">
<g clip-path="url(#clip0)">
<path d="M18.4278 1.438H14.7008V0.683487C14.7008 0.367622 14.445 0.111336 14.1287 0.111336C13.8128 0.111336 13.5565 0.367622 13.5565 0.683487V1.438H5.44348V0.683487C5.44348 0.367622 5.18719 0.111336 4.87133 0.111336C4.55503 0.111336 4.29918 0.367622 4.29918 0.683487V1.438H0.572151C0.493149 1.438 0.417625 1.45394 0.34935 1.48293C0.143799 1.56962 0 1.77285 0 2.01015V18.3058C0 18.6215 0.255997 18.878 0.572151 18.878H18.4278C18.744 18.878 19 18.6215 19 18.3058V2.01015C19 1.69196 18.7424 1.438 18.4278 1.438ZM17.8557 17.7337H1.1443V6.75971H17.8557V17.7337ZM17.8557 5.61541H1.1443V2.5823H4.29918V3.33637C4.29918 3.65253 4.55503 3.90852 4.87133 3.90852C5.18719 3.90852 5.44348 3.65253 5.44348 3.33637V2.5823H13.5565V3.33637C13.5565 3.65253 13.8128 3.90852 14.1287 3.90852C14.445 3.90852 14.7008 3.65253 14.7008 3.33637V2.5823H17.8557V5.61541Z" fill="#979797"/>
<rect x="11.5" y="11.5" width="4" height="4" stroke="#979797"/>
</g>
<defs>
<clipPath id="clip0">
<rect width="19" height="19" fill="white"/>
</clipPath>
</defs>
</svg>

<svg width="19" height="19" fill="none" xmlns="http://www.w3.org/2000/svg"><g clip-path="url(#clip0)"><path d="M18.428 1.438H14.7V.683a.572.572 0 1 0-1.145 0v.755H5.444V.683a.572.572 0 0 0-1.144 0v.755H.572A.57.57 0 0 0 0 2.01v16.296c0 .316.256.572.572.572h17.856a.572.572 0 0 0 .572-.572V2.01a.572.572 0 0 0-.572-.572zm-.572 16.296H1.144V6.76h16.712v10.974zm0-12.119H1.144V2.582H4.3v.754a.572.572 0 1 0 1.144 0v-.754h8.113v.754a.572.572 0 1 0 1.145 0v-.754h3.155v3.033z" fill="#979797"/><path stroke="#979797" d="M11.5 11.5h4v4h-4z"/></g><defs><clipPath id="clip0"><path fill="#fff" d="M0 0h19v19H0z"/></clipPath></defs></svg>
